X: 1
T: Hogs And Heifers
M: 6/8
L: 1/8
R: jig
K: Amaj
e3 f2e | c3 c2B | A2e f>ga | e>dc B>cB| 
A2E E>cB | A>ce a2f | e2A c2B |1 A3 A2c :|2 A3 AED||
C>EA A>EC | D>FA A>FD| C>EA d2c| B3 B>cd |
e2A A>ag| f2d d>ef | e2A c2B |1 A3 AED :|2 A3 A3 ||
